!!!OTL: Die Narrenkappe. / (Spottlied aus den Fastnachtsspuk.)
!!!ARE: Europa, Mitteleuropa, Deutschland
!!!SCT: A0356
!!!TXL: @@GMH
!!!YEM: Copyright 1995, estate of Helmut Schaffrath.
**kern	**text
!! Mixed meters:  4/1; 6/1
*M4/1	*
*met(c|)	*
*clefC4	*
*k[]	*
*C:ion	*
=1	=1
!LO:TX:a:t=jon.	!
1ryy	.
{1c	Für-
1c	-witʒ,
1c	der
=2	=2
1B	kre-
1G	-mer
1A	hat
1B	vil
=3	=3
0c}	war
{0G	ge-
=4	=4
*lig	*
1.d	-bracht
2c	.
1B	.
*Xlig	*
1A	aus
=5	=5
*lig	*
1G	fremb-
1F	.
1G	.
*Xlig	*
1E	-den
=6	=6
0D	lan-
0C}	-den,}
=7	=7
{1r	.
1c	Wer
1c	ichts
1c	be-
=8	=8
1B-	-darf
1G	der
1A	füg
1B	ſich
=9	=9
0c}	dar,
{0G	iſt
=10	=10
*lig	*
1.d	man-
2c	.
1B	.
*Xlig	*
1A	-cher
=11	=11
*lig	*
1G	-lei
1F	.
1G	.
*Xlig	*
1E	vor-
=12	=12
0D	-han-
0C	-den.}
=13	=13
1r}	.
{1C	Ein
1E	je-
1F	-der-
=14	=14
*M6/1	*
0G	-man
1A	ſind
0B	ſein
1G	ma-
=15	=15
*M4/1	*
1.c	-nir.
2B	.
1.c	.
2A	.
=16	=16
00G;/ll	.
=17	=17
1r}	.
{1G	Wer
1A	geld
1B	dar-
=18	=18
0c	-auf
0G	wil
=19	=19
0A	wen
1.G	.
2F	.
=20	=20
00E/ll;	den,
=21	=21
1r}	.
{1E	da-
1A	-mit
1G	er
=22	=22
*M6/1	*
0c	ſich
1B	ſchön
0A	ſchmück
1G	vnd
=23	=23
0F	ʒir
0G	.
0E	.
=24	=24
00.D/ll;	.
=25	=25
*M4/1	*
1r}	.
{1D	die
1E	faß-
1F	-nacht
=26	=26
*lig	*
1.G	ʒu
2F	.
1E	.
*Xlig	*
1D	vol-
=27	=27
1E	-en
1F	.
0D	.
=28	=28
00C/ll}	den.
==	==
!!!GTL: Trink. und Zechlieder, incl. Fastnacht- u. Martinslieder
!!!AGN: Romanze, Ballade, Lied
!! Rhaw, Bicinia II 1545 No. 78.
!!!ONB: ESAC (Essen Associative Code) Database: ALTDEU
!!!AMT: irregular
!!!AIN: vox
!!!EED: Helmut Schaffrath
!!!EEV: 1.0
!!!RDF**kern: l = terminal long
!!!AMD: Ionian
!!!URL-scan: https://rosdok.uni-rostock.de/mcrviewer/recordIdentifier/rosdok_ppn738218359/iview2/phys_0499.iview2?x=-495.6391625615763&y=1544.0384236718528&scale=0.4629418472063854&rotation=0&layout=singlePageLayout&logicalDiv=log_0013
!!!ENC: Anna Maria Matuszewska
!!!EEV: 2024/13/03
*-	*-
